X: 254
T: Isle of Skye
C:
O:Scotland
B:Keith Norman MacDonald : "The Skye collection of the best reels & strathspeys extant" : 1887
Z:Ralph Palmer
R:Reel
M:C|
L:1/8
K:Bb
d | (TBF)DF TBFDF | (TEC)C=B TcGGA | (TBF)DF TBFDF | ECFE DB,B, :|
F | TBdfb (Tfd)Bd | {/d}cBcd cB{/^F}Gc | (Bd)fb (Tfd)Bd | {/d}cBcd B/B/B TB>b |
Tgfgb TfdBd | {/d}cBcd {/d}cBGg | fBgB aBbB | {/d}cBcd B/B/B ~B |]


